X:1
T:Schmücke Dich, LMD
T:Schmücke Dich, LMD
T:Johann Crüger, 1649
T:Public Domain Courtesy of the Cyber Hymnal™
C:Johann Crüger, 1649
Z:Public Domain
Z:Courtesy of the Cyber Hymnal™
%%score ( 1 2 ) ( 3 4 )
L:1/8
M:none
K:D
V:1 treble 
V:2 treble 
V:3 bass 
V:4 bass 
V:1
 [DF]4 [CE]4 [B,D]2 [CE]2 [DF]2 [CA]2 [DG]4 [DF]4 | [DA]4 [DF]4 [DG]2 (FE) [B,D]2 [DF]2 E4 D4 | %2
 [DF]4 [CE]4 [B,D]2 [CE]2 [DF]2 [CA]2 [DG]4 [DF]4 | [DA]4 [DF]4 [DG]2 (FE) [B,D]2 [DF]2 E4 D4 | %4
 [DA]4 [DB]2 [Fd]4 [Ed]2 [Ec]2 [EA]2 B4 [CA]4 | [DA]4 [DB]2 [Fd]4 [Ed]2 [Ec]2 [EA]2 B4 [CA]4 | %6
 [CE]4 [^DF]4 [EG]2 [B,G]2 [B,F]2 [G,E]2 [B,D]4 [B,E]4 | %7
 [DF]4 [DA]4 [DG]2 [DF]2 [CE]2 D2 E4 [A,D]4 |] %8
V:2
 x24 | x10 C2 x3 D2 C2 x5 | x24 | x10 C2 x3 (D2 C2) x5 | x16 F2 E2 x4 | x16 F2 E2 x4 | x24 | %7
 x16 D2 C2 x4 |] %8
V:3
 [D,A,]4 [A,,A,]4 [B,,F,]2 [E,G,]2 [D,A,]2 [F,,F,]2 [G,,B,]4 [D,A,]4 | %1
 [D,F,]4 [D,A,]4 [G,,B,]2 (A,G,) [B,,F,]2 [F,,A,]2 [A,,A,]4 [D,F,]4 | %2
 [D,A,]4 [A,,A,]4 [B,,F,]2 [E,G,]2 [D,A,]2 [F,,F,]2 [G,,B,]4 [D,A,]4 | %3
 [D,F,]4 [D,A,]4 [G,,B,]2 (A,G,) [B,,F,]2 [F,,A,]2 [A,,A,]4 [D,F,]4 | %4
 [D,F,]4 G,2 [D,A,]4 [B,,^G,]2 [A,,A,]2 [C,A,]2 [D,A,]2 [E,G,]2 [A,,A,]4 | %5
 [D,F,]4 G,2 [D,A,]4 [B,,^G,]2 [A,,A,]2 [C,A,]2 [D,A,]2 [E,G,]2 [A,,A,]4 | %6
 [A,,A,]4 [F,,A,]4 [E,,B,]2 [G,,E,]2 [B,,^D,]2 [=C,E,]2 [B,,F,]4 [E,G,]4 | %7
 [D,A,]4 [F,,A,]4 [G,,B,]2 [D,A,]2 [A,,A,]2 [B,,F,]2 [A,,A,]4 [D,F,]4 |] %8
V:4
 x24 | x10 A,,2 x12 | x24 | x10 A,,2 x12 | x24 | x24 | x24 | x24 |] %8

